X:1
T:Tammany
M:2/4
L:1/8
K:G
 BE EE| BE EE| cF FF| F4| ^DF BA| GA BG| FF FF| B4| BE EE| BE EE| cF FF|\
 F4| ^DF BA| GA B^c| dA AA| A4| D3 E| B4| A3 G| E4| DD DD| DA A z|\
 DD DD| DB B z| D3 E| B4| A3 G| E4| Dd Dd| Dd Dd| e3 d| G3 z|

